svg/construction_worker_outline.svg

<?xml version="1.0" encoding="UTF-8" standalone="no"?>
<!-- Created with Inkscape (http://www.inkscape.org/) -->
<svg id="svg8" xmlns:rdf="http://www.w3.org/1999/02/22-rdf-syntax-ns#" xmlns="http://www.w3.org/2000/svg" xmlns:osb="http://www.openswatchbook.org/uri/2009/osb" height="48" width="48" version="1.1" xmlns:cc="http://creativecommons.org/ns#" viewBox="0 0 12.7 12.7" xmlns:dc="http://purl.org/dc/elements/1.1/">
 <title id="title4753">UIO-icon</title>
 <metadata id="metadata5">
  <rdf:RDF>
   <cc:Work rdf:about="">
    <dc:format>image/svg+xml</dc:format>
    <dc:type rdf:resource="http://purl.org/dc/dcmitype/StillImage"/>
    <dc:title>UIO-icon</dc:title>
    <dc:creator>
     <cc:Agent>
      <dc:title>Joaquín Urbano</dc:title>
     </cc:Agent>
    </dc:creator>
    <dc:rights>
     <cc:Agent>
      <dc:title>GPL</dc:title>
     </cc:Agent>
    </dc:rights>
   </cc:Work>
  </rdf:RDF>
 </metadata>
 <g id="layer1" fill="#333" transform="translate(0,-284.3)">
  <path id="rect9008" d="m23.5 4.9727c-2.6956 0-2.7562 0.071705-2.2305 2.6016 0.36088 1.737 0.36504 2.0102 0.029297 2.2871-0.579 0.4766-0.861 0.0841-1.299-1.7989-0.214-0.9226-0.426-1.7037-0.469-1.7402-0.205-0.1691-2.338 1.352-2.992 2.1347-0.8581 1.027-1.5762 2.6499-1.5762 3.5547 0 0.46638-0.12297 0.63281-0.4668 0.63281-0.96254 0-1.4706 1.0878-0.77539 1.6602 0.28514 0.34842 1.35 0.60364 2.8164 0.7832v4.787c0 2.0844 0.5155 4.1544 1.9922 5.084 2.09 1.3157 3.1271 2.1809 4.9668 2.2383 1.2599 0.00378 2.871-1.135 4.6094-2.2227 1.5631-0.97807 2.3613-3.0259 2.3613-5.0996-0.011169-1.627-0.030429-3.2539-0.046875-4.8809 1.3829-0.1767 2.4362-0.4063 2.8613-0.68945 0.69516-0.57238 0.1891-1.6602-0.77344-1.6602-0.34383 0-0.46875-0.16653-0.46875-0.63281 0-1.6841-1.6149-4.0564-3.4805-5.1133l-1.135-0.6441-0.135 0.584c-0.075 0.3216-0.267 1.1348-0.426 1.8066-0.315 1.3335-0.63 1.6515-1.181 1.1973-0.305-0.2513-0.297-0.5878 0.052-2.2676 0.526-2.53 0.464-2.6015-2.232-2.6015zm-0.73047 0.50586c0.16904-0.0052188 0.34969-0.0058448 0.58789 0.0078125 0.72904 0.0055559 1.5288-0.07541 2.084 0.14258 0.092167 0.43689-0.096536 1.093-0.17188 1.6602l-0.30273 1.6426c-0.001213 0.54477-0.033803 1.1022 0.53125 1.4043 0.63815 0.40954 1.1742 0.28361 1.5625-0.59766 0.28554-0.90272 0.56687-1.8052 0.68945-2.6875 0.61406 0.2993 1.386 0.82856 2.0176 1.4688 0.54972 0.68986 0.91164 0.80921 1.4355 2.1328 0.24859 0.55881 0.33484 1.0778 0.33398 1.5742-0.024026 0.2942 0.12039 0.52498 0.32422 0.73633 0.18635 0.19848 0.51208 0.19039 0.81836 0.20898 0.10429 0.012221 0.46375 0.059333 0.4043 0.62305-0.023851 0.13723-0.40765 0.24153-0.65039 0.30664-2.1707 0.51909-4.6981 0.66865-6.7051 0.72461l-2.6914 0.058594c-1.898 0.04074-3.7757 0.001519-5.6113-0.20703-0.39746-0.003631-0.7731-0.072565-1.1504-0.13672l-1.7988-0.38672c-0.19135-0.093608-0.41234-0.075003-0.54688-0.37695-0.03747-0.27867-0.035176-0.54307 0.54102-0.61719 0.28232 0.006841 0.55867-0.061647 0.82031-0.40625 0.17213-0.31344 0.20358-0.58067 0.18945-0.83203 0.14213-0.58027 0.26955-1.1809 0.51172-1.6211 0.32486-0.79027 0.75484-1.3706 1.2461-1.8281 0.66106-0.51853 1.3434-1.1444 1.9668-1.4746l0.58398 2.2969c0.42478 0.99858 0.52595 0.91729 0.71875 1.1426 0.50871 0.33289 0.89674 0.007416 1.2832-0.33203 0.12344-0.23942 0.29249-0.3102 0.23828-1.2207l-0.446-2.4119c-0.038-0.2207-0.075-0.3304-0.113-0.6622-0.041-0.2623 0.432-0.2777 0.777-0.3105 0.195-0.0071 0.352-0.0163 0.522-0.0215zm7.136 9.5764c0.016163 1.5108 0.031837 3.0036 0.041016 4.5156 0 1.8753-0.63337 4.0318-2.0469 4.916-1.572 0.98366-3.2259 2.1971-4.3652 2.1934-1.6637-0.047622-2.9459-1.0229-4.8359-2.2129-1.335-0.841-1.665-2.988-1.66-4.873l0.011719-4.4414c3.5917 0.36911 9.2033 0.30966 12.855-0.097656zm-9.4141 0.88477c-0.43898 0.00011339-0.79482 0.35601-0.79492 0.79492 0.00009828 0.43895 0.35596 0.79481 0.79492 0.79492 0.43898-0.00011339 0.79482-0.35604 0.79492-0.79492-0.00009828-0.43899-0.35596-0.79481-0.79492-0.79492zm5.9688 0c-0.43898 0.00011339-0.79483 0.35601-0.79492 0.79492 0.0000945 0.43895 0.35592 0.79481 0.79492 0.79492 0.43898-0.00011339 0.79482-0.35604 0.79492-0.79492-0.00009828-0.43899-0.35596-0.79481-0.79492-0.79492zm-3.035 3.669c-0.37814 0.00378-0.67004 0.070579-0.66602 0.14844 0.001999 0.080882 0.32239 0.14686 0.7168 0.14648 0.39441 0.00003773 0.71477-0.065602 0.7168-0.14648 0.003201-0.082016-0.31865-0.14844-0.7168-0.14844-0.017008-0.00011339-0.034-0.00011339-0.050781 0zm2.9551 2.2617c-0.00007561 0.00041575-0.011341 0.001424-0.011719 0.001953 0.00011717 0.00037789 0.011719-0.00041575 0.011719 0zm-0.011719 0.001953c-0.015874-0.053669-1.2268 0.071172-2.7285 0.2832-0.064441 0.007559-0.12896 0.019785-0.19336 0.027344-1.4369 0.2075-2.5416 0.40995-2.5215 0.46094 0.026079 0.052158 1.2485-0.077409 2.7422-0.28906 1.4821-0.21014 2.6733-0.42369 2.7012-0.48242zm-20.656 0.82617v0.51367h7.2422v5.8125h-7.2421v0.51367h1.2422v5.8086h-1.2422v0.51367h7.2422v5.7051h0.514v-5.7051h12.342v5.7051h0.51367v-5.707h12.464v5.7051h0.51367v-5.7051h4.4668v-0.51367h-10.461v-6.3145h-0.007813v-0.007813h-19.832v-6.3262h-0.514zm1.7558 6.84h12.346v5.8086h-12.346zm12.859 0h12.467v5.8086h-12.467z" fill-rule="evenodd" transform="matrix(.26458 0 0 .26458 0 284.3)"/>
 </g>
</svg>

<svg width="48" height="48" viewBox="0 0 48 48" fill="none" xmlns="http://www.w3.org/2000/svg">
<path fill-rule="evenodd" clip-rule="evenodd" d="M23.4998 4.97266C20.8042 4.97266 20.7436 5.04436 21.2693 7.57422C21.6302 9.3112 21.6344 9.5844 21.2986 9.86129C20.7196 10.3379 20.4376 9.94539 19.9997 8.06242C19.7857 7.13983 19.5737 6.35874 19.5307 6.32224C19.3257 6.15314 17.1927 7.67422 16.5387 8.45691C15.6806 9.4839 14.9625 11.1068 14.9625 12.0116C14.9625 12.4779 14.8395 12.6444 14.4957 12.6444C13.5332 12.6444 13.0251 13.7322 13.7203 14.3045C14.0055 14.653 15.0703 14.9082 16.5367 15.0877V19.8747C16.5367 21.9591 17.0522 24.029 18.5289 24.9586C20.6189 26.2743 21.6559 27.1395 23.4956 27.1969C24.7555 27.2007 26.3666 26.0619 28.105 24.9742C29.668 23.9962 30.4662 21.9484 30.4662 19.8747C30.4551 18.2477 30.4358 16.6208 30.4194 14.9938C31.8022 14.8171 32.8555 14.5875 33.2806 14.3044C33.9758 13.732 33.4697 12.6442 32.5072 12.6442C32.1634 12.6442 32.0384 12.4777 32.0384 12.0114C32.0384 10.3273 30.4236 7.95507 28.558 6.89818L27.423 6.25409L27.288 6.83808C27.213 7.15968 27.021 7.97287 26.862 8.64466C26.547 9.97814 26.232 10.2961 25.681 9.84194C25.376 9.59065 25.384 9.25415 25.733 7.57437C26.259 5.04441 26.197 4.97291 23.5011 4.97291L23.4998 4.97266ZM22.7694 5.47851C22.9384 5.47329 23.119 5.47266 23.3572 5.48632C24.0863 5.49188 24.886 5.41091 25.4412 5.6289C25.5334 6.06578 25.3447 6.72189 25.2693 7.28908L24.9666 8.93166C24.9654 9.47642 24.9328 10.0338 25.4978 10.3359C26.136 10.7455 26.672 10.6195 27.0603 9.73829C27.3459 8.83558 27.6272 7.93311 27.7498 7.05082C28.3638 7.35012 29.1358 7.87937 29.7673 8.5196C30.3171 9.20946 30.679 9.3288 31.2028 10.6524C31.4514 11.2112 31.5377 11.7302 31.5368 12.2266C31.5128 12.5208 31.6572 12.7515 31.861 12.9629C32.0474 13.1614 32.3731 13.1533 32.6794 13.1719C32.7837 13.1841 33.1431 13.2312 33.0837 13.7949C33.0598 13.9321 32.676 14.0364 32.4333 14.1015C30.2626 14.6206 27.7352 14.7702 25.7283 14.8261L23.0369 14.8847C21.1389 14.9255 19.2612 14.8862 17.4257 14.6777C17.0282 14.6741 16.6526 14.6051 16.2753 14.541L14.4765 14.1543C14.2852 14.0607 14.0642 14.0793 13.9296 13.7773C13.8922 13.4987 13.8945 13.2343 14.4706 13.1601C14.753 13.167 15.0293 13.0985 15.2909 12.7539C15.4631 12.4405 15.4945 12.1732 15.4804 11.9219C15.6225 11.3416 15.7499 10.741 15.9921 10.3008C16.317 9.51054 16.7469 8.93021 17.2382 8.47272C17.8992 7.9542 18.5816 7.32833 19.205 6.99814L19.7889 9.29501C20.2137 10.2936 20.3149 10.2123 20.5077 10.4376C21.0164 10.7705 21.4044 10.445 21.7909 10.1056C21.9143 9.86615 22.0834 9.79537 22.0291 8.88488L21.5831 6.47301C21.5451 6.25232 21.5081 6.14262 21.4701 5.81082C21.4291 5.54853 21.9021 5.53313 22.2471 5.50033C22.4421 5.49323 22.5991 5.48403 22.7691 5.47883L22.7694 5.47851ZM29.9053 15.0548C29.9214 16.5656 29.9371 18.0584 29.9463 19.5703C29.9463 21.4456 29.3129 23.6021 27.8994 24.4863C26.3274 25.4699 24.6735 26.6833 23.5343 26.6796C21.8706 26.632 20.5884 25.6568 18.6984 24.4668C17.3634 23.6258 17.0334 21.4788 17.0384 19.5938L17.0502 15.1525C20.6418 15.5216 26.2533 15.4621 29.905 15.0548H29.9053ZM20.4913 15.9395C20.0523 15.9397 19.6965 16.2956 19.6964 16.7345C19.6965 17.1734 20.0523 17.5293 20.4913 17.5294C20.9303 17.5293 21.2861 17.1733 21.2862 16.7345C21.2861 16.2955 20.9302 15.9397 20.4913 15.9395ZM26.46 15.9395C26.021 15.9397 25.6652 16.2956 25.6651 16.7345C25.6652 17.1734 26.021 17.5293 26.46 17.5294C26.899 17.5293 27.2548 17.1733 27.2549 16.7345C27.2548 16.2955 26.899 15.9397 26.46 15.9395ZM23.425 19.6085C23.0469 19.6123 22.755 19.6791 22.759 19.7569C22.761 19.8378 23.0814 19.9038 23.4758 19.9034C23.8702 19.9035 24.1906 19.8378 24.1926 19.7569C24.1958 19.6749 23.874 19.6085 23.4758 19.6085C23.4588 19.6084 23.4418 19.6084 23.425 19.6085ZM26.3801 21.8702C26.38 21.8706 26.3688 21.8716 26.3684 21.8721C26.3685 21.8725 26.3801 21.8717 26.3801 21.8721V21.8702ZM26.3684 21.8721C26.3525 21.8185 25.1416 21.9433 23.6399 22.1553C23.5755 22.1629 23.511 22.1751 23.4466 22.1827C22.0097 22.3902 20.905 22.5926 20.9251 22.6436C20.9512 22.6958 22.1736 22.5662 23.6673 22.3545C25.1493 22.1444 26.3405 21.9309 26.3684 21.8721ZM5.71265 22.6983V23.2119H12.9548V29.0244H5.71275V29.538H6.95493V35.3466H5.71275V35.8602H12.9549V41.5653H13.4688V35.8602H25.8107V41.5653H26.3244V35.8583H38.7882V41.5634H39.3019V35.8583H43.7686V35.3447H33.3077V29.0302H33.2999V29.0224H13.4682V22.6963H12.9542L5.71265 22.6983ZM7.46842 29.5382H19.8143V35.3467H7.46842V29.5382ZM20.3273 29.5382H32.7941V35.3467H20.3273V29.5382Z" fill="#333333"/>
</svg>
